X:13365
T:Poll Halfpenny
M:4/4
L:1/8
S:Tommy Potts, Dublin (fiddle)
R:Reel
D:RTE broadcast, late 70's
H:The F naturals are very mobile, as are the 'c's
H:The first few bars are an intro, 
H:and are the end section of the second part.
H:The phrase 'A2E2 (3.A.A.A' is actually 'A2E2 (3.AE.AE.AE. '
H:but 'abc2ps' can't handle this
N:As played
Z:Bernie Stocks
K:D
(3Bcd | =f3d (3efe ed | cdec fcge | aged cAdc | A2E2 (3.A.A.A A2E2 {a}fe ||
dcAG A2 (3ABc | dcAF G2 (3Bcd | {f}edcA dcAG | EA(3.A.A.A cA (4Bcde |
=f3d e3d | cdef- g2(3efg |aged cAdc | A2E2 (3.A.A.A A4E4 ||~g3a gfge | 
~a3b agef | ~g3a gedg | ed=cA dAcd | ~g3a gfge | ~a3b az(4agfe 
|1 =f3d (3efe-ed | cdef g2(3efg | aged cAdc | A2E2 (3.A.A.A A4E4  
:|2 =f3d (3efe ed | cdec fcge | aged cAdc | A2E2 (3.A.A.A A2E2 {a}fe ||
